img/logo-header.svg

<svg width="70" height="55" viewBox="0 0 70 55" fill="none" xmlns="http://www.w3.org/2000/svg">
<path d="M24.7414 3L2.78457 25.1863C1.24203 26.745 1.24204 29.255 2.78458 30.8137L24.7414 53M24.7414 3V42.6341V28M24.7414 3L30.738 27.616C31.7153 31.6276 37.3908 31.7085 38.4821 27.7265L45.2586 3M45.2586 53L67.2154 30.8137C68.758 29.255 68.758 26.745 67.2154 25.1863L45.2586 3M45.2586 3V42.6341" stroke="#BEBEFF" stroke-width="3"/>
</svg>

<svg width="70" height="55" fill="none" xmlns="http://www.w3.org/2000/svg"><path d="M24.741 3 2.785 25.186a4 4 0 0 0 0 5.628L24.74 53m0-50v39.634V28m0-25 5.997 24.616c.977 4.012 6.653 4.093 7.744.11L45.26 3m0 50 21.956-22.186a4 4 0 0 0 0-5.628L45.26 3m0 0v39.634" stroke="#BEBEFF" stroke-width="3"/></svg>
